;FLAVOR:Marlin
;TIME:921
;Filament used: 0.570458m
;Layer height: 0.2
;MINX:80.04
;MINY:91.496
;MINZ:0.2
;MAXX:139.96
;MAXY:128.504
;MAXZ:5
;TARGET_MACHINE.NAME:Creality Ender-3 S1
;Generated with Cura_SteamEngine 5.10.2
; Ender 3 S1 Start G-code
; M413 S0 ; Disable power loss recovery
G92 E0 ; Reset Extruder

; Prep surfaces before auto home for better accuracy
M140 S60
M104 S200

G28 ; Home all axes
G1 Z10.0 F3000 ; Move Z Axis up little to prevent scratching of Heat Bed
G1 X0 Y0

M190 S60
M109 S200

G1 X0.1 Y20 Z0.3 F5000.0 ; Move to start position
G1 X0.1 Y200.0 Z0.3 F1500.0 E15 ; Draw the first line
G1 X0.4 Y200.0 Z0.3 F5000.0 ; Move to side a little
G1 X0.4 Y20 Z0.3 F1500.0 E30 ; Draw the second line
G92 E0 ; Reset Extruder
G1 Z2.0 F3000 ; Move Z Axis up little to prevent scratching of Heat Bed
G1 X5 Y20 Z0.3 F5000.0 ; Move over to prevent blob squish

M82 ;absolute extrusion mode
G92 E0
G92 E0
G1 F2400 E-0.8
;LAYER_COUNT:25
;LAYER:0
M107
M204 S2000
G0 F7500 X83.505 Y94.51 Z0.2
M204 S500
;TYPE:SKIRT
G1 F2400 E0
G1 F1500 X84.242 Y93.874 E0.03238
G1 X85.033 Y93.304 E0.06481
G1 X85.809 Y92.842 E0.09484
G1 X86.75 Y92.39 E0.12956
G1 X87.662 Y92.049 E0.16195
G1 X88.602 Y91.79 E0.19438
G1 X89.567 Y91.614 E0.227
G1 X90.695 Y91.519 E0.26465
G1 X91.352 Y91.504 E0.28651
G1 X102.812 Y91.504 E0.66767
G1 X104.195 Y91.496 E0.71367
G1 X128.264 Y91.496 E1.51421
G1 X129.144 Y91.509 E1.54348
G1 X130.116 Y91.568 E1.57587
G1 X131.079 Y91.714 E1.60827
G1 X132.026 Y91.945 E1.64069
G1 X132.914 Y92.245 E1.67186
G1 X133.806 Y92.635 E1.70424
G1 X134.689 Y93.122 E1.73778
G1 X135.44 Y93.624 E1.76783
G1 X136.255 Y94.282 E1.80267
G1 X136.953 Y94.96 E1.83503
G1 X137.589 Y95.697 E1.86741
G1 X138.159 Y96.487 E1.89981
G1 X138.621 Y97.263 E1.92985
G1 X139.075 Y98.205 E1.96463
G1 X139.404 Y99.083 E1.99581
G1 X139.673 Y100.055 E2.02936
G1 X139.85 Y101.021 E2.06202
G1 X139.945 Y102.151 E2.09974
G1 X139.96 Y102.826 E2.12219
G1 X139.959 Y105.496 E2.211
G1 X139.941 Y106.699 E2.25101
G1 X139.884 Y108.743 E2.31902
G1 X139.884 Y111.314 E2.40454
G1 X139.956 Y114.06 E2.4959
G1 X139.959 Y116.912 E2.59076
G1 X139.947 Y117.673 E2.61607
G1 X139.889 Y118.646 E2.64849
G1 X139.743 Y119.609 E2.68089
G1 X139.512 Y120.556 E2.71331
G1 X139.199 Y121.478 E2.74569
G1 X138.807 Y122.369 E2.77807
G1 X138.355 Y123.191 E2.80927
G1 X137.793 Y124.029 E2.84283
G1 X137.203 Y124.759 E2.87405
G1 X136.5 Y125.485 E2.90766
G1 X135.764 Y126.121 E2.94001
G1 X134.974 Y126.691 E2.97241
G1 X134.198 Y127.154 E3.00247
G1 X133.258 Y127.607 E3.03717
G1 X132.345 Y127.949 E3.0696
G1 X131.407 Y128.208 E3.10197
G1 X130.441 Y128.385 E3.13463
G1 X129.305 Y128.481 E3.17255
G1 X128.648 Y128.496 E3.19441
G1 X110.723 Y128.496 E3.79059
G1 X109.436 Y128.504 E3.8334
G1 X91.589 Y128.503 E4.42699
G1 X90.856 Y128.491 E4.45138
G1 X89.884 Y128.432 E4.48377
G1 X88.921 Y128.286 E4.51616
G1 X87.974 Y128.055 E4.54858
G1 X87.086 Y127.755 E4.57976
G1 X86.194 Y127.365 E4.61214
G1 X85.311 Y126.878 E4.64568
G1 X84.56 Y126.376 E4.67572
G1 X83.745 Y125.718 E4.71056
G1 X83.047 Y125.04 E4.74293
G1 X82.411 Y124.303 E4.7753
G1 X81.841 Y123.513 E4.8077
G1 X81.379 Y122.737 E4.83774
G1 X80.925 Y121.795 E4.87252
G1 X80.596 Y120.917 E4.90371
G1 X80.327 Y119.944 E4.93728
G1 X80.152 Y118.987 E4.96964
G1 X80.062 Y118.032 E5.00155
G1 X80.04 Y117.162 E5.03049
G1 X80.041 Y103.042 E5.50012
G1 X80.053 Y102.318 E5.52421
G1 X80.112 Y101.344 E5.55666
G1 X80.259 Y100.383 E5.589
G1 X80.49 Y99.436 E5.62142
G1 X80.79 Y98.548 E5.65259
G1 X81.196 Y97.623 E5.68619
G1 X81.631 Y96.831 E5.71625
G1 X82.213 Y95.965 E5.75095
G1 X82.827 Y95.208 E5.78337
G1 X83.505 Y94.51 E5.81573
M204 S2000
G0 F7500 X83.767 Y94.812
M204 S500
G1 F1500 X84.476 Y94.198 E5.84693
G1 X85.238 Y93.648 E5.87818
G1 X86.014 Y93.186 E5.90822
G1 X86.891 Y92.764 E5.94059
G1 X87.769 Y92.434 E5.97179
G1 X88.674 Y92.183 E6.00303
G1 X89.601 Y92.013 E6.03437
G1 X90.729 Y91.918 E6.07202
G1 X91.361 Y91.904 E6.09305
G1 X102.814 Y91.904 E6.47398
G1 X104.197 Y91.896 E6.51998
G1 X128.258 Y91.896 E7.32025
G1 X129.12 Y91.908 E7.34892
G1 X130.057 Y91.964 E7.38014
G1 X130.985 Y92.103 E7.41135
G1 X131.898 Y92.324 E7.44259
G1 X132.754 Y92.612 E7.47263
G1 X133.646 Y93.002 E7.50501
G1 X134.467 Y93.455 E7.5362
G1 X135.218 Y93.957 E7.56625
G1 X135.977 Y94.569 E7.59867
G1 X136.651 Y95.222 E7.62989
G1 X137.265 Y95.931 E7.66108
G1 X137.815 Y96.692 E7.69231
G1 X138.277 Y97.468 E7.72235
G1 X138.7 Y98.345 E7.75473
G1 X139.029 Y99.223 E7.78592
G1 X139.28 Y100.128 E7.81716
G1 X139.451 Y101.055 E7.84851
G1 X139.546 Y102.185 E7.88622
G1 X139.56 Y102.826 E7.90755
G1 X139.559 Y105.49 E7.99615
G1 X139.541 Y106.688 E8.036
G1 X139.484 Y108.732 E8.10402
G1 X139.484 Y111.314 E8.18989
G1 X139.556 Y114.06 E8.28126
G1 X139.559 Y116.906 E8.37591
G1 X139.548 Y117.65 E8.40066
G1 X139.493 Y118.587 E8.43188
G1 X139.354 Y119.515 E8.46309
G1 X139.133 Y120.428 E8.49433
G1 X138.833 Y121.317 E8.52554
G1 X138.456 Y122.176 E8.55674
G1 X138.004 Y122.998 E8.58794
G1 X137.481 Y123.778 E8.61918
G1 X136.915 Y124.481 E8.6492
G1 X136.238 Y125.183 E8.68163
G1 X135.53 Y125.797 E8.7128
G1 X134.769 Y126.347 E8.74403
G1 X133.993 Y126.81 E8.77409
G1 X133.117 Y127.233 E8.80644
G1 X132.238 Y127.564 E8.83768
G1 X131.334 Y127.815 E8.86889
G1 X130.407 Y127.986 E8.90024
G1 X129.271 Y128.082 E8.93816
G1 X128.639 Y128.096 E8.95918
G1 X110.721 Y128.096 E9.55514
G1 X109.436 Y128.104 E9.59788
G1 X91.595 Y128.103 E10.19127
G1 X90.88 Y128.092 E10.21506
G1 X89.943 Y128.036 E10.24628
G1 X89.015 Y127.897 E10.27749
G1 X88.102 Y127.676 E10.30873
G1 X87.246 Y127.388 E10.33877
G1 X86.354 Y126.998 E10.37115
G1 X85.533 Y126.545 E10.40234
G1 X84.782 Y126.043 E10.43238
G1 X84.023 Y125.431 E10.46481
G1 X83.349 Y124.778 E10.49602
G1 X82.735 Y124.069 E10.52722
G1 X82.185 Y123.308 E10.55845
G1 X81.723 Y122.532 E10.58848
G1 X81.3 Y121.655 E10.62087
G1 X80.971 Y120.777 E10.65205
G1 X80.72 Y119.872 E10.68329
G1 X80.55 Y118.949 E10.71451
G1 X80.462 Y118.022 E10.74548
G1 X80.44 Y117.162 E10.77409
G1 X80.441 Y103.048 E11.24352
G1 X80.452 Y102.342 E11.26701
G1 X80.508 Y101.404 E11.29826
G1 X80.648 Y100.477 E11.32944
G1 X80.869 Y99.564 E11.36069
G1 X81.157 Y98.708 E11.39073
G1 X81.547 Y97.816 E11.42311
G1 X81.982 Y97.024 E11.45316
G1 X82.524 Y96.216 E11.48552
G1 X83.114 Y95.486 E11.51674
G1 X83.767 Y94.812 E11.54795
M204 S2000
G0 F7500 X84.029 Y95.114
M204 S500
G1 F1500 X84.711 Y94.522 E11.57799
G1 X85.443 Y93.992 E11.60805
G1 X86.219 Y93.53 E11.63808
G1 X87.032 Y93.138 E11.6681
G1 X87.877 Y92.819 E11.69815
G1 X88.747 Y92.576 E11.72819
G1 X89.635 Y92.412 E11.75822
G1 X90.763 Y92.317 E11.79587
G1 X91.37 Y92.304 E11.81607
G1 X102.816 Y92.304 E12.19676
G1 X104.199 Y92.296 E12.24276
G1 X128.253 Y92.296 E13.0428
G1 X129.097 Y92.307 E13.07088
G1 X129.999 Y92.36 E13.10093
G1 X130.892 Y92.492 E13.13095
G1 X131.77 Y92.703 E13.16099
G1 X132.626 Y92.991 E13.19102
G1 X133.453 Y93.353 E13.22105
G1 X134.245 Y93.788 E13.2511
G1 X134.996 Y94.29 E13.28115
G1 X135.699 Y94.857 E13.31119
G1 X136.349 Y95.484 E13.34123
G1 X136.941 Y96.166 E13.37126
G1 X137.471 Y96.897 E13.40129
G1 X137.933 Y97.673 E13.43133
G1 X138.326 Y98.486 E13.46137
G1 X138.644 Y99.331 E13.4914
G1 X138.887 Y100.201 E13.52144
G1 X139.052 Y101.089 E13.55148
G1 X139.147 Y102.219 E13.5892
G1 X139.16 Y102.826 E13.60939
G1 X139.159 Y105.484 E13.6978
G1 X139.141 Y106.677 E13.73748
G1 X139.084 Y108.721 E13.80549
G1 X139.084 Y111.314 E13.89173
G1 X139.156 Y114.06 E13.9831
G1 X139.159 Y116.9 E14.07756
G1 X139.149 Y117.627 E14.10174
G1 X139.097 Y118.529 E14.13179
G1 X138.965 Y119.422 E14.16181
G1 X138.754 Y120.301 E14.19188
G1 X138.467 Y121.157 E14.22191
G1 X138.105 Y121.984 E14.25193
G1 X137.671 Y122.776 E14.28197
G1 X137.169 Y123.527 E14.31202
G1 X136.603 Y124.23 E14.34203
G1 X135.976 Y124.881 E14.3721
G1 X135.295 Y125.473 E14.40211
G1 X134.564 Y126.003 E14.43214
G1 X133.788 Y126.466 E14.46219
G1 X132.975 Y126.859 E14.49223
G1 X132.13 Y127.179 E14.52228
G1 X131.261 Y127.422 E14.55229
G1 X130.373 Y127.587 E14.58233
G1 X129.237 Y127.683 E14.62025
G1 X128.63 Y127.696 E14.64044
G1 X110.719 Y127.696 E15.23617
G1 X109.436 Y127.704 E15.27884
G1 X91.601 Y127.703 E15.87203
G1 X90.903 Y127.693 E15.89525
G1 X90.001 Y127.64 E15.92531
G1 X89.108 Y127.508 E15.95533
G1 X88.23 Y127.297 E15.98536
G1 X87.374 Y127.009 E16.0154
G1 X86.547 Y126.647 E16.04543
G1 X85.755 Y126.212 E16.07548
G1 X85.004 Y125.71 E16.10553
G1 X84.301 Y125.143 E16.13557
G1 X83.651 Y124.516 E16.1656
G1 X83.059 Y123.834 E16.19564
G1 X82.529 Y123.103 E16.22567
G1 X82.067 Y122.327 E16.25571
G1 X81.674 Y121.514 E16.28574
G1 X81.356 Y120.669 E16.31577
G1 X81.113 Y119.799 E16.34582
G1 X80.948 Y118.911 E16.37586
G1 X80.862 Y118.012 E16.40589
G1 X80.84 Y117.162 E16.43418
G1 X80.841 Y103.054 E16.90341
G1 X80.851 Y102.365 E16.92633
G1 X80.904 Y101.463 E16.95638
G1 X81.037 Y100.57 E16.98641
G1 X81.248 Y99.692 E17.01644
G1 X81.536 Y98.836 E17.04648
G1 X81.898 Y98.009 E17.07651
G1 X82.333 Y97.217 E17.10656
G1 X82.835 Y96.467 E17.13658
G1 X83.402 Y95.764 E17.16662
G1 X84.029 Y95.114 E17.19666
M204 S2000
G1 F2400 E16.39666
;MESH:degifab pinset.stl
G0 F7500 X91.464 Y101.839
G0 X110 Y116.896
M204 S500
;TYPE:WALL-INNER
G1 F2400 E17.19666
G1 F1500 X128.36 Y116.896 E17.80731
G1 X128.36 Y114.644 E17.88221
G1 X128.136 Y114.644 E17.88966
G1 X127.797 Y114.54 E17.90146
G1 X127.661 Y114.411 E17.90769
G1 X127.526 Y114.016 E17.92158
G1 X111.093 Y110.361 E18.4815
G1 X110.921 Y110.262 E18.4881
G1 X110.778 Y110.096 E18.49538
G1 X110.696 Y109.885 E18.50291
G1 X110.697 Y109.489 E18.51608
G1 X110.76 Y109.257 E18.52408
G1 X110.863 Y109.112 E18.53
G1 X111.053 Y108.967 E18.53795
G1 X128.36 Y105.122 E19.12761
G1 X128.36 Y103.096 E19.195
G1 X104.072 Y103.096 E20.00282
G1 X103.86 Y103.104 E20.00988
G1 X91.64 Y103.104 E20.41632
G1 X91.64 Y109.166 E20.61794
G1 X104.66 Y104.478 E21.0782
G1 X104.842 Y104.465 E21.08427
G1 X105.28 Y104.553 E21.09913
G1 X105.706 Y104.673 E21.11385
G1 X106.082 Y104.813 E21.12719
G1 X106.515 Y105.015 E21.14309
G1 X106.895 Y105.226 E21.15754
G1 X107.261 Y105.47 E21.17217
G1 X107.609 Y105.744 E21.1869
G1 X107.922 Y106.037 E21.20116
G1 X108.198 Y106.337 E21.21472
G1 X108.495 Y106.716 E21.23074
G1 X108.744 Y107.083 E21.24549
G1 X108.956 Y107.466 E21.26005
G1 X109.14 Y107.866 E21.27469
G1 X109.289 Y108.279 E21.2893
G1 X109.404 Y108.689 E21.30346
G1 X109.492 Y109.131 E21.31845
G1 X109.544 Y109.571 E21.33318
G1 X109.56 Y110.013 E21.34789
G1 X109.54 Y110.453 E21.36254
G1 X109.486 Y110.884 E21.37699
G1 X109.402 Y111.316 E21.39163
G1 X109.28 Y111.739 E21.40627
G1 X109.144 Y112.111 E21.41945
G1 X108.936 Y112.563 E21.43599
G1 X108.734 Y112.919 E21.44961
G1 X108.481 Y113.299 E21.46479
G1 X108.23 Y113.619 E21.47832
G1 X107.918 Y113.955 E21.49357
G1 X107.622 Y114.231 E21.50703
G1 X107.237 Y114.533 E21.5233
G1 X106.914 Y114.753 E21.5363
G1 X106.486 Y114.992 E21.55261
G1 X106.087 Y115.176 E21.56722
G1 X105.687 Y115.321 E21.58137
G1 X105.299 Y115.433 E21.5948
G1 X104.848 Y115.524 E21.61011
G1 X104.421 Y115.576 E21.62441
G1 X104.314 Y115.676 E21.62929
G1 X104.064 Y115.784 E21.63834
G1 X103.824 Y115.784 E21.64633
G1 X91.641 Y110.909 E22.08277
G1 X91.64 Y116.904 E22.28216
G1 X109.596 Y116.904 E22.87938
G1 X109.828 Y116.896 E22.8871
G1 X110 Y116.896 E22.89283
M204 S2000
G0 F7500 X110 Y117.296
M204 S500
;TYPE:WALL-OUTER
G1 F1500 X128.76 Y117.296 E23.51679
G1 X128.76 Y114.244 E23.6183
G1 X128.136 Y114.244 E23.63905
G1 X127.977 Y114.167 E23.64493
G1 X127.936 Y114.044 E23.64924
G1 X127.936 Y113.697 E23.66078
G1 X111.199 Y109.976 E24.23105
G1 X111.098 Y109.826 E24.23706
G1 X111.096 Y109.457 E24.24933
G1 X111.213 Y109.345 E24.25472
G1 X128.76 Y105.443 E24.85259
G1 X128.76 Y102.696 E24.94396
G1 X104.064 Y102.696 E25.76535
G1 X103.86 Y102.704 E25.77214
G1 X91.24 Y102.704 E26.19188
G1 X91.24 Y105.606 E26.2884
G1 F1546.4 X91.228 Y107.734 E26.35706
G1 F1657.5 X91.216 Y109.862 E26.42111
G1 F1704.5 X91.279 Y109.745 E26.425
G1 F1587.3 X95.124 Y108.337 E26.5537
G1 F1500 X104.786 Y104.861 E26.89523
G1 X105.174 Y104.939 E26.90839
G1 X105.566 Y105.048 E26.92192
G1 X105.957 Y105.194 E26.9358
G1 X106.309 Y105.358 E26.94872
G1 X106.675 Y105.56 E26.96262
G1 X107.002 Y105.776 E26.97566
G1 X107.337 Y106.037 E26.98978
G1 X107.628 Y106.308 E27.00301
G1 X107.914 Y106.62 E27.01709
G1 X108.165 Y106.942 E27.03066
G1 X108.395 Y107.278 E27.04421
G1 X108.594 Y107.635 E27.0578
G1 X108.764 Y108.003 E27.07128
G1 X108.905 Y108.389 E27.08495
G1 X109.009 Y108.753 E27.09754
G1 X109.095 Y109.179 E27.112
G1 X109.144 Y109.587 E27.12567
G1 X109.16 Y109.997 E27.13931
G1 X109.143 Y110.405 E27.15289
G1 X109.093 Y110.81 E27.16647
G1 X109.017 Y111.207 E27.17991
G1 X108.904 Y111.601 E27.19354
G1 X108.762 Y111.988 E27.20725
G1 X108.587 Y112.367 E27.22114
G1 X108.4 Y112.699 E27.23381
G1 X108.176 Y113.039 E27.24736
G1 X107.907 Y113.38 E27.2618
G1 X107.645 Y113.663 E27.27463
G1 X107.336 Y113.95 E27.28865
G1 X107.013 Y114.202 E27.30228
G1 X106.674 Y114.431 E27.31589
G1 X106.317 Y114.63 E27.32948
G1 X105.965 Y114.794 E27.3424
G1 X105.576 Y114.937 E27.35618
G1 X105.171 Y115.053 E27.37019
G1 X104.769 Y115.131 E27.38381
G1 X104.159 Y115.205 E27.40425
G1 X104.122 Y115.31 E27.40795
G1 X103.968 Y115.407 E27.41401
G1 X95.108 Y111.866 E27.73136
G1 F1554.4 X93.19 Y111.083 E27.79785
G1 F1671.3 X91.271 Y110.3 E27.85972
G1 F1729.1 X91.212 Y110.203 E27.86299
G1 F1657.5 X91.226 Y112.344 E27.92744
G1 F1550.4 X91.24 Y114.485 E27.99634
G1 F1500 X91.24 Y117.304 E28.0901
G1 X109.604 Y117.304 E28.70089
G1 X109.828 Y117.296 E28.70834
G1 X110 Y117.296 E28.71406
M204 S2000
G1 F2400 E27.91406
G0 F7500 X110 Y116.986
G0 X91.812 Y116.732
G0 X91.506 Y110.712
G0 X91.189 Y110.165
M204 S500
G1 F2400 E28.71406
G1 F2006.7 X91.19 Y109.909 E28.72043
M204 S2000
G1 F2400 E27.92043
G0 F7500 X91.507 Y109.359
G0 X104.768 Y104.607
G0 X106.045 Y104.962
G0 X107.157 Y105.583
G0 X108.099 Y106.45
G0 X108.811 Y107.515
G0 X109.257 Y108.717
G0 X109.41 Y109.987
G0 X109.26 Y111.261
G0 X108.819 Y112.463
G0 X108.109 Y113.529
G0 X106.251 Y115.289
G0 X104.493 Y115.73
G0 X103.785 Y115.942
G0 X91.819 Y111.171
G0 X91.812 Y116.732
G0 X110 Y116.796
G0 X110 Y116.536
M204 S500
;TYPE:SKIN
G1 F2400 E28.72043
G1 F1500 X109.784 Y116.536 E28.72761
G1 X109.579 Y116.544 E28.73443
G1 X105.393 Y116.543 E28.87366
G1 F1282.1 X104.985 Y116.476 E28.88975
G1 F1134.2 X104.707 Y116.484 E28.90198
G1 F1293.1 X104.157 Y116.542 E28.92332
G1 F1488.8 X92 Y116.544 E29.3307
G1 F1500 X92 Y111.44 E29.50046
G1 F1481.5 X95.916 Y113.007 E29.6425
G1 F1442.3 X99.832 Y114.574 E29.7884
G1 F1405.2 X103.748 Y116.141 E29.93815
G1 F1339.3 X104.146 Y116.14 E29.95298
G1 F1219.5 X104.558 Y116.013 E29.97062
G1 F1151.6 X104.601 Y115.976 E29.97307
G1 F1134.2 X104.933 Y115.944 E29.98775
G1 F1282.1 X105.32 Y115.797 E30.00386
G1 F1500 X105.827 Y115.653 E30.02139
G1 X106.213 Y115.512 E30.03505
G1 X106.636 Y115.318 E30.05053
G1 X107.046 Y115.091 E30.06612
G1 X107.436 Y114.831 E30.08171
G1 X107.799 Y114.551 E30.09696
G1 X108.168 Y114.212 E30.11362
G1 X108.475 Y113.88 E30.12866
G1 X108.764 Y113.522 E30.14397
G1 X109.035 Y113.115 E30.16023
G1 X109.247 Y112.738 E30.17461
G1 X109.453 Y112.302 E30.19065
G1 X109.616 Y111.866 E30.20613
G1 X109.749 Y111.412 E30.22187
G1 X109.845 Y110.91 E30.23887
G1 X109.895 Y110.496 E30.25274
G1 F1470.6 X109.924 Y110.01 E30.26925
G1 F1435.4 X109.908 Y109.506 E30.28678
G1 F1463.4 X109.847 Y109.087 E30.30122
G1 F1500 X109.741 Y108.556 E30.31923
G1 X109.637 Y108.192 E30.33182
G1 X109.469 Y107.717 E30.34857
G1 X109.283 Y107.313 E30.36337
G1 X109.015 Y106.837 E30.38154
G1 X108.785 Y106.502 E30.39505
G1 X108.498 Y106.136 E30.41052
G1 X108.145 Y105.745 E30.42804
G1 X107.859 Y105.484 E30.44092
G1 X107.481 Y105.183 E30.45699
G1 X107.081 Y104.916 E30.47299
G1 X106.637 Y104.672 E30.48984
G1 X106.273 Y104.502 E30.5032
G1 X105.748 Y104.306 E30.52184
G1 F1229.5 X105.35 Y104.11 E30.53984
G1 F1087 X104.904 Y104.044 E30.56053
G1 F1132.1 X104.601 Y104.054 E30.57389
G1 F1287.6 X104.229 Y104.248 E30.59015
G1 F1500 X92 Y108.651 E31.02245
G1 X92 Y103.464 E31.19497
G1 X103.884 Y103.464 E31.59023
G1 X104.076 Y103.456 E31.59662
